svg/fluentui-system-icons/ic_fluent_rocket_16_regular.svg

<svg width="16" height="16" viewBox="0 0 16 16" fill="none" xmlns="http://www.w3.org/2000/svg">
<path d="M8.36379 5.34575C8.9975 4.71205 10.024 4.71717 10.6566 5.34973C11.2891 5.98229 11.2943 7.00881 10.6606 7.64252C10.0268 8.27623 9.00033 8.2711 8.36777 7.63854C7.73521 7.00598 7.73008 5.97946 8.36379 5.34575ZM9.94947 6.05684C9.70408 5.81145 9.31074 5.81302 9.0709 6.05286C8.83105 6.2927 8.82949 6.68605 9.07487 6.93143C9.32026 7.17682 9.7136 7.17525 9.95345 6.93541C10.1933 6.69557 10.1949 6.30222 9.94947 6.05684ZM13.7779 3.50037C13.587 2.89414 13.1121 2.41929 12.5059 2.22841C10.7853 1.68666 8.90627 2.14686 7.63077 3.42236L7.00196 4.05117C6.13441 3.67783 5.08977 3.84544 4.38122 4.55398L3.59574 5.33946C3.40048 5.53472 3.40048 5.8513 3.59574 6.04657L4.44566 6.89648C4.31513 7.39506 4.44523 7.94774 4.83597 8.33848L5.00279 8.5053L4.23036 8.96713C4.0981 9.04621 4.00969 9.18187 3.99074 9.3348C3.9718 9.48773 4.02443 9.64086 4.13339 9.74983L6.25641 11.8728C6.36535 11.9818 6.51843 12.0344 6.67133 12.0155C6.82423 11.9966 6.95987 11.9083 7.03899 11.7761L7.50124 11.0037L7.66778 11.1703C8.05848 11.561 8.61108 11.6911 9.10962 11.5606L9.95968 12.4107C10.1549 12.606 10.4715 12.606 10.6668 12.4107L11.4523 11.6252C12.1608 10.9166 12.3284 9.87194 11.955 9.00437L12.5839 8.3755C13.8594 7.1 14.3196 5.22093 13.7779 3.50037ZM12.2056 3.18224C12.5003 3.27505 12.7312 3.50594 12.824 3.8007C13.2538 5.16571 12.8887 6.65647 11.8768 7.66839L9.082 10.4632C8.88674 10.6585 8.57015 10.6585 8.37489 10.4632L5.54307 7.63137C5.34781 7.43611 5.34781 7.11953 5.54307 6.92426L8.33787 4.12946C9.34979 3.11754 10.8406 2.75245 12.2056 3.18224ZM11.1424 9.81698C11.1789 10.2105 11.0465 10.6168 10.7452 10.9181L10.3132 11.35L9.9613 10.9981L11.1424 9.81698ZM5.08833 5.26109C5.38961 4.95981 5.7958 4.82739 6.18931 4.86382L5.00826 6.04487L4.6564 5.69301L5.08833 5.26109ZM6.77217 10.2747L6.51018 10.7124L5.29404 9.49626L5.73194 9.23445L6.77217 10.2747ZM4.84893 11.8645C5.04419 11.6693 5.04419 11.3527 4.84893 11.1574C4.65367 10.9621 4.33708 10.9621 4.14182 11.1574L2.82158 12.4777C2.62632 12.6729 2.62632 12.9895 2.82158 13.1848C3.01684 13.38 3.33342 13.38 3.52869 13.1848L4.84893 11.8645ZM3.78728 10.096C3.98255 10.2913 3.98255 10.6079 3.78728 10.8031L3.25785 11.3325C3.06259 11.5278 2.74601 11.5278 2.55074 11.3325C2.35548 11.1373 2.35548 10.8207 2.55074 10.6254L3.08018 10.096C3.27544 9.90075 3.59202 9.90075 3.78728 10.096ZM5.91033 12.926C6.10559 12.7308 6.10559 12.4142 5.91033 12.2189C5.71507 12.0237 5.39849 12.0237 5.20322 12.2189L4.67379 12.7484C4.47853 12.9436 4.47853 13.2602 4.67379 13.4555C4.86905 13.6507 5.18563 13.6507 5.3809 13.4555L5.91033 12.926Z" fill="#212121"/>
</svg>

<svg xmlns="http://www.w3.org/2000/svg" width="16" height="16"><path d="M8.364 5.346a1.621 1.621 0 0 1 2.293.004c.632.632.637 1.659.004 2.293a1.621 1.621 0 0 1-2.293-.004 1.621 1.621 0 0 1-.004-2.293Zm1.585.71a.621.621 0 0 0-.878-.003.621.621 0 0 0 .004.878.621.621 0 0 0 .878.004.621.621 0 0 0-.004-.878ZM13.778 3.5a1.947 1.947 0 0 0-1.272-1.272A4.84 4.84 0 0 0 7.63 3.422l-.629.63a2.377 2.377 0 0 0-2.62.502l-.786.785a.5.5 0 0 0 0 .708l.85.85a1.5 1.5 0 0 0 .39 1.441l.167.167-.773.462a.5.5 0 0 0-.097.783l2.123 2.123a.5.5 0 0 0 .783-.097l.462-.772.167.166c.39.391.943.521 1.442.39l.85.85a.5.5 0 0 0 .707 0l.785-.785a2.377 2.377 0 0 0 .503-2.62l.629-.63A4.84 4.84 0 0 0 13.778 3.5Zm-1.572-.318a.946.946 0 0 1 .618.619 3.84 3.84 0 0 1-.947 3.867l-2.795 2.795a.5.5 0 0 1-.707 0L5.543 7.631a.5.5 0 0 1 0-.707L8.338 4.13a3.84 3.84 0 0 1 3.868-.947Zm-1.064 6.635c.037.393-.095.8-.397 1.101l-.432.432-.352-.352 1.181-1.181ZM5.088 5.261a1.374 1.374 0 0 1 1.101-.397l-1.18 1.18-.353-.351.432-.432Zm1.684 5.014-.262.437-1.216-1.216.438-.262 1.04 1.04Zm-1.923 1.59a.5.5 0 1 0-.707-.708l-1.32 1.32a.5.5 0 1 0 .707.708l1.32-1.32Zm-1.062-1.769a.5.5 0 0 1 0 .707l-.53.53a.5.5 0 1 1-.706-.708l.53-.529a.5.5 0 0 1 .706 0Zm2.123 2.83a.5.5 0 1 0-.707-.707l-.53.53a.5.5 0 1 0 .708.707l.53-.53Z"/></svg>
